docs/logo-300.svg

<?xml version="1.0" encoding="UTF-8" standalone="no"?>
<!-- Created with Inkscape (http://www.inkscape.org/) -->

<svg
   xmlns:dc="http://purl.org/dc/elements/1.1/"
   xmlns:cc="http://creativecommons.org/ns#"
   xmlns:rdf="http://www.w3.org/1999/02/22-rdf-syntax-ns#"
   xmlns:svg="http://www.w3.org/2000/svg"
   xmlns="http://www.w3.org/2000/svg"
   xmlns:xlink="http://www.w3.org/1999/xlink"
   xmlns:sodipodi="http://sodipodi.sourceforge.net/DTD/sodipodi-0.dtd"
   xmlns:inkscape="http://www.inkscape.org/namespaces/inkscape"
   width="71.437424mm"
   height="46.001949mm"
   viewBox="0 0 71.437424 46.001949"
   version="1.1"
   id="svg8"
   inkscape:version="0.92.5 (2060ec1f9f, 2020-04-08)"
   sodipodi:docname="drawing.svg">
  <defs
     id="defs2">
    <linearGradient
       gradientUnits="userSpaceOnUse"
       y2="129.883"
       x2="23.7885"
       y1="0"
       x1="23.7885"
       id="paint0_linear">
      <stop
         id="stop38"
         stop-color="#023E73" />
      <stop
         id="stop40"
         stop-color="#012840"
         offset="1" />
    </linearGradient>
    <linearGradient
       gradientUnits="userSpaceOnUse"
       y2="175"
       x2="202.203"
       y1="45.876701"
       x1="202.203"
       id="paint1_linear"
       gradientTransform="translate(-30,-1.1343646)">
      <stop
         id="stop43"
         stop-color="#023E73" />
      <stop
         id="stop45"
         stop-color="#012840"
         offset="1" />
    </linearGradient>
    <linearGradient
       gradientUnits="userSpaceOnUse"
       y2="129.883"
       x2="81.9384"
       y1="0"
       x1="81.9384"
       id="paint2_linear">
      <stop
         id="stop48"
         stop-color="#023E73" />
      <stop
         id="stop50"
         stop-color="#012840"
         offset="1" />
    </linearGradient>
    <linearGradient
       gradientUnits="userSpaceOnUse"
       y2="45.117199"
       x2="95.154099"
       y1="20.507799"
       x1="95.154099"
       id="paint3_linear">
      <stop
         id="stop53"
         stop-color="#023A6B" />
      <stop
         id="stop55"
         stop-color="#013661"
         offset="1" />
    </linearGradient>
    <linearGradient
       gradientUnits="userSpaceOnUse"
       y2="129.883"
       x2="128.855"
       y1="57.421902"
       x1="128.855"
       id="paint4_linear">
      <stop
         id="stop58"
         stop-color="#F2275D" />
      <stop
         id="stop60"
         stop-color="#BF0436"
         offset="1" />
    </linearGradient>
    <linearGradient
       gradientUnits="userSpaceOnUse"
       y2="45.117199"
       x2="209.47099"
       y1="20.507799"
       x1="209.47099"
       id="paint5_linear"
       gradientTransform="translate(-30,-0.00116563)">
      <stop
         id="stop63"
         stop-color="#023B6D" />
      <stop
         id="stop65"
         stop-color="#013661"
         offset="1" />
    </linearGradient>
    <linearGradient
       gradientUnits="userSpaceOnUse"
       y2="128.51601"
       x2="266.95999"
       y1="43.75"
       x1="266.95999"
       id="paint10_linear"
       gradientTransform="translate(-30,1.5109006)">
      <stop
         id="stop88"
         stop-color="#023B6C" />
      <stop
         id="stop90"
         stop-color="#012840"
         offset="1" />
    </linearGradient>
    <linearGradient
       inkscape:collect="always"
       xlink:href="#paint0_linear"
       id="linearGradient485"
       gradientUnits="userSpaceOnUse"
       x1="23.7885"
       y1="0"
       x2="23.7885"
       y2="129.883" />
    <linearGradient
       inkscape:collect="always"
       xlink:href="#paint2_linear"
       id="linearGradient487"
       gradientUnits="userSpaceOnUse"
       x1="81.9384"
       y1="0"
       x2="81.9384"
       y2="129.883" />
    <linearGradient
       inkscape:collect="always"
       xlink:href="#paint3_linear"
       id="linearGradient489"
       gradientUnits="userSpaceOnUse"
       x1="95.154099"
       y1="20.507799"
       x2="95.154099"
       y2="45.117199" />
    <linearGradient
       inkscape:collect="always"
       xlink:href="#paint4_linear"
       id="linearGradient491"
       gradientUnits="userSpaceOnUse"
       x1="128.855"
       y1="57.421902"
       x2="128.855"
       y2="129.883" />
    <linearGradient
       inkscape:collect="always"
       xlink:href="#paint0_linear"
       id="linearGradient493"
       gradientUnits="userSpaceOnUse"
       x1="23.7885"
       y1="0"
       x2="23.7885"
       y2="129.883" />
    <linearGradient
       inkscape:collect="always"
       xlink:href="#paint2_linear"
       id="linearGradient495"
       gradientUnits="userSpaceOnUse"
       x1="81.9384"
       y1="0"
       x2="81.9384"
       y2="129.883" />
    <linearGradient
       inkscape:collect="always"
       xlink:href="#paint3_linear"
       id="linearGradient497"
       gradientUnits="userSpaceOnUse"
       x1="95.154099"
       y1="20.507799"
       x2="95.154099"
       y2="45.117199" />
    <linearGradient
       inkscape:collect="always"
       xlink:href="#paint4_linear"
       id="linearGradient499"
       gradientUnits="userSpaceOnUse"
       x1="128.855"
       y1="57.421902"
       x2="128.855"
       y2="129.883" />
  </defs>
  <sodipodi:namedview
     id="base"
     pagecolor="#ffffff"
     bordercolor="#666666"
     borderopacity="1.0"
     inkscape:pageopacity="0.0"
     inkscape:pageshadow="2"
     inkscape:zoom="1.979899"
     inkscape:cx="225.36102"
     inkscape:cy="53.174288"
     inkscape:document-units="mm"
     inkscape:current-layer="g136"
     showgrid="false"
     inkscape:window-width="1920"
     inkscape:window-height="1043"
     inkscape:window-x="0"
     inkscape:window-y="0"
     inkscape:window-maximized="1" />
  <metadata
     id="metadata5">
    <rdf:RDF>
      <cc:Work
         rdf:about="">
        <dc:format>image/svg+xml</dc:format>
        <dc:type
           rdf:resource="http://purl.org/dc/dcmitype/StillImage" />
        <dc:title></dc:title>
      </cc:Work>
    </rdf:RDF>
  </metadata>
  <g
     inkscape:label="Layer 1"
     inkscape:groupmode="layer"
     id="layer1"
     transform="translate(-20.788727,-177.08705)">
    <g
       style="fill:none"
       id="g136"
       transform="matrix(0.26458333,0,0,0.26458333,20.788727,177.08705)">
      <path
         id="path10"
         d="M 4.04227e-4,102.248 V 10 C 4.04227e-4,4.47715 4.47756,0 10.0004,0 h 11.7178 c 5.5228,0 10,4.46666 10,9.98951 V 96.7212 c 0,4.4218 3.5242,5.5268 5.2863,5.5268 h 0.5726 c 5.5228,0 10,4.477 10,10 v 10.197 c 0,3.723 -2.2619,6.639 -5.9749,6.91 -4.0111,0.292 -10.4311,0.528 -20.4566,0.528 -21.513678,0 -21.145195773,-19.344 -21.145195773,-27.635 z"
         inkscape:connector-curvature="0"
         style="fill:url(#linearGradient485)" />
      <path
         id="path12"
         d="M 195.991,146.39264 V 62.654736 c 0,-2.7615 -2.239,-5 -5,-5 h -21.718 c -2.761,0 -5,2.2293 -5,4.9907 v 78.252204 c 0,4.396 -3.524,5.495 -5.286,5.495 h -5.573 c -2.761,0 -5,2.239 -5,5 v 18.063 c 0,1.866 1.118,3.397 2.971,3.611 3.472,0.402 10.413,0.799 23.461,0.799 21.513,0 21.145,-19.231 21.145,-27.473 z"
         inkscape:connector-curvature="0"
         style="fill:url(#paint1_linear)" />
      <path
         id="path14"
         d="M 58.1503,102.248 V 10 c 0,-5.52285 4.4772,-10 10,-10 h 11.7178 c 5.5228,0 10,4.46666 10,9.98951 V 96.7212 c 0,4.4218 3.5242,5.5268 5.2863,5.5268 h 0.5726 c 5.523,0 10,4.477 10,10 v 10.197 c 0,3.723 -2.262,6.639 -5.9749,6.91 -4.0111,0.292 -10.4311,0.528 -20.4566,0.528 -21.5137,0 -21.1452,-19.344 -21.1452,-27.635 z"
         inkscape:connector-curvature="0"
         style="fill:url(#linearGradient487)" />
      <path
         id="path16"
         d="M 140.661,45.1172 H 49.6475 c -5.5229,0 -10,-4.4772 -10,-10 v -4.6094 c 0,-5.5228 4.4771,-10 10,-10 h 91.0135 c 5.523,0 10,4.4772 10,10 v 4.6094 c 0,5.5228 -4.477,10 -10,10 z"
         inkscape:connector-curvature="0"
         style="fill:url(#linearGradient489)" />
      <path
         id="path18"
         d="m 140.661,57.4219 h -23.613 c -5.523,0 -10,4.4771 -10,10 v 8.1563 c 0,3.2845 2.663,5.9471 5.947,5.9471 3.285,0 5.948,2.6626 5.948,5.9471 v 32.4106 c 0,5.523 4.477,10 10,10 h 11.718 c 5.523,0 10,-4.477 10,-10 V 67.4219 c 0,-5.5229 -4.477,-10 -10,-10 z"
         inkscape:connector-curvature="0"
         style="fill:url(#linearGradient491)" />
      <path
         id="path20"
         d="m 118.943,20.5078 h 21.718 c 5.523,0 10,4.4772 10,10 v 9.323 c 0,2.9196 -2.367,5.2864 -5.287,5.2864 h -1.822 c -13.591,0 -24.609,-11.018 -24.609,-24.6094 z"
         inkscape:connector-curvature="0"
         style="fill:#f2275d" />
      <rect
         id="rect22"
         rx="5"
         height="24.6094"
         width="33.0396"
         y="20.506632"
         x="162.952"
         style="fill:url(#paint5_linear)" />
      <path
         style="fill:url(#linearGradient493)"
         id="path26"
         d="M 4.04227e-4,102.248 V 5 C 4.04227e-4,2.23858 2.23898,0 5.00041,0 H 26.7182 c 2.7614,0 5,2.22079 5,4.98221 V 96.7212 c 0,4.4218 3.5242,5.5268 5.2863,5.5268 h 5.5726 c 2.7614,0 5,2.239 5,5 v 18.225 c 0,1.861 -1.1131,3.39 -2.9619,3.606 -3.4686,0.404 -10.4101,0.804 -23.4696,0.804 -21.513678,0 -21.145195773,-19.344 -21.145195773,-27.635 z"
         inkscape:connector-curvature="0" />
      <path
         style="fill:url(#linearGradient495)"
         id="path28"
         d="M 58.1503,102.248 V 5 c 0,-2.76142 2.2386,-5 5,-5 h 21.7178 c 2.7614,0 5,2.22079 5,4.98221 V 96.7212 c 0,4.4218 3.5242,5.5268 5.2863,5.5268 h 5.5726 c 2.761,0 5,2.239 5,5 v 18.225 c 0,1.861 -1.113,3.39 -2.962,3.606 -3.4685,0.404 -10.41,0.804 -23.4695,0.804 -21.5137,0 -21.1452,-19.344 -21.1452,-27.635 z"
         inkscape:connector-curvature="0" />
      <path
         style="fill:url(#linearGradient497)"
         id="path30"
         d="M 145.661,45.1172 H 44.6475 c -2.7615,0 -5,-2.2386 -5,-5 V 25.5078 c 0,-2.7614 2.2385,-5 5,-5 H 145.661 c 2.761,0 5,2.2386 5,5 v 14.6094 c 0,2.7614 -2.239,5 -5,5 z"
         inkscape:connector-curvature="0" />
      <path
         style="fill:url(#linearGradient499)"
         id="path32"
         d="m 145.661,57.4219 h -33.613 c -2.761,0 -5,2.2385 -5,5 v 14.1034 c 0,2.7614 2.239,5 5,5 h 1.895 c 2.761,0 5,2.2386 5,5 v 38.3577 c 0,2.761 2.238,5 5,5 h 21.718 c 2.761,0 5,-2.239 5,-5 V 62.4219 c 0,-2.7614 -2.239,-5 -5,-5 z"
         inkscape:connector-curvature="0" />
      <path
         id="path34"
         d="m 118.943,20.5078 h 26.718 c 2.761,0 5,2.2386 5,5 v 14.6094 c 0,2.7614 -2.239,5 -5,5 h -2.109 c -13.591,0 -24.609,-11.018 -24.609,-24.6094 z"
         inkscape:connector-curvature="0"
         style="fill:#f2275d" />
      <path
         id="path36"
         d="m 223.496,45.260901 h 38.794 c 1.657,0 3,1.3432 3,3 v 14.0691 c 0,1.6569 -1.343,3 -3,3 h -33.728 c -5.621,0 -5.066,11.883 0,11.883 h 27.181 c 20.112,0 17.873,52.813899 0,52.813899 H 209.86 c -1.657,0 -3,-1.344 -3,-3 v -14.598 c 0,-1.656 1.337,-3 2.994,-3 h 34.127 c 5.621,0 5.417,-13.620799 0,-13.620799 h -20.485 c -26.808,0 -25.383,-50.5472 0,-50.5472 z"
         inkscape:connector-curvature="0"
         style="fill:url(#paint10_linear)" />
    </g>
  </g>
</svg>

<svg width="300" height="175" viewBox="0 0 300 175" fill="none" xmlns="http://www.w3.org/2000/svg">
<path d="M0.000404227 102.248V10C0.000404227 4.47715 4.47756 0 10.0004 0H21.7182C27.241 0 31.7182 4.46666 31.7182 9.98951V96.7212C31.7182 101.143 35.2424 102.248 37.0045 102.248H37.5771C43.0999 102.248 47.5771 106.725 47.5771 112.248V122.445C47.5771 126.168 45.3152 129.084 41.6022 129.355C37.5911 129.647 31.1711 129.883 21.1456 129.883C-0.368078 129.883 0.000404227 110.539 0.000404227 102.248Z" fill="url(#paint0_linear)"/>
<path d="M225.991 147.527L225.991 63.7891C225.991 61.0276 223.752 58.7891 220.991 58.7891H199.273C196.512 58.7891 194.273 61.0184 194.273 63.7798V142.032C194.273 146.428 190.749 147.527 188.987 147.527H183.414C180.653 147.527 178.414 149.766 178.414 152.527V170.59C178.414 172.456 179.532 173.987 181.385 174.201C184.857 174.603 191.798 175 204.846 175C226.359 175 225.991 155.769 225.991 147.527Z" fill="url(#paint1_linear)"/>
<path d="M58.1503 102.248V10C58.1503 4.47715 62.6275 0 68.1503 0H79.8681C85.3909 0 89.8681 4.46666 89.8681 9.98951V96.7212C89.8681 101.143 93.3923 102.248 95.1544 102.248H95.727C101.25 102.248 105.727 106.725 105.727 112.248V122.445C105.727 126.168 103.465 129.084 99.7521 129.355C95.741 129.647 89.321 129.883 79.2955 129.883C57.7818 129.883 58.1503 110.539 58.1503 102.248Z" fill="url(#paint2_linear)"/>
<path d="M140.661 45.1172H49.6475C44.1246 45.1172 39.6475 40.64 39.6475 35.1172V30.5078C39.6475 24.985 44.1246 20.5078 49.6475 20.5078H140.661C146.184 20.5078 150.661 24.985 150.661 30.5078V35.1172C150.661 40.64 146.184 45.1172 140.661 45.1172Z" fill="url(#paint3_linear)"/>
<path d="M140.661 57.4219H117.048C111.525 57.4219 107.048 61.899 107.048 67.4219V75.5782C107.048 78.8627 109.711 81.5253 112.995 81.5253C116.28 81.5253 118.943 84.1879 118.943 87.4724V119.883C118.943 125.406 123.42 129.883 128.943 129.883H140.661C146.184 129.883 150.661 125.406 150.661 119.883V67.4219C150.661 61.899 146.184 57.4219 140.661 57.4219Z" fill="url(#paint4_linear)"/>
<path d="M118.943 20.5078H140.661C146.184 20.5078 150.661 24.985 150.661 30.5078V39.8308C150.661 42.7504 148.294 45.1172 145.374 45.1172H143.552C129.961 45.1172 118.943 34.0992 118.943 20.5078V20.5078Z" fill="#F2275D"/>
<rect x="192.952" y="20.5078" width="33.0396" height="24.6094" rx="5" fill="url(#paint5_linear)"/>
<rect x="159.912" y="103.906" width="25.1101" height="24.6094" rx="5" fill="#012C4A"/>
<path d="M0.000404227 102.248V5C0.000404227 2.23858 2.23898 0 5.00041 0H26.7182C29.4796 0 31.7182 2.22079 31.7182 4.98221V96.7212C31.7182 101.143 35.2424 102.248 37.0045 102.248H42.5771C45.3385 102.248 47.5771 104.487 47.5771 107.248V125.473C47.5771 127.334 46.464 128.863 44.6152 129.079C41.1466 129.483 34.2051 129.883 21.1456 129.883C-0.368078 129.883 0.000404227 110.539 0.000404227 102.248Z" fill="url(#paint6_linear)"/>
<path d="M58.1503 102.248V5C58.1503 2.23858 60.3889 0 63.1503 0H84.8681C87.6295 0 89.8681 2.22079 89.8681 4.98221V96.7212C89.8681 101.143 93.3923 102.248 95.1544 102.248H100.727C103.488 102.248 105.727 104.487 105.727 107.248V125.473C105.727 127.334 104.614 128.863 102.765 129.079C99.2965 129.483 92.355 129.883 79.2955 129.883C57.7818 129.883 58.1503 110.539 58.1503 102.248Z" fill="url(#paint7_linear)"/>
<path d="M145.661 45.1172H44.6475C41.886 45.1172 39.6475 42.8786 39.6475 40.1172V25.5078C39.6475 22.7464 41.886 20.5078 44.6475 20.5078H145.661C148.422 20.5078 150.661 22.7464 150.661 25.5078V40.1172C150.661 42.8786 148.422 45.1172 145.661 45.1172Z" fill="url(#paint8_linear)"/>
<path d="M145.661 57.4219H112.048C109.287 57.4219 107.048 59.6604 107.048 62.4219V76.5253C107.048 79.2867 109.287 81.5253 112.048 81.5253H113.943C116.704 81.5253 118.943 83.7639 118.943 86.5253V124.883C118.943 127.644 121.181 129.883 123.943 129.883H145.661C148.422 129.883 150.661 127.644 150.661 124.883V62.4219C150.661 59.6605 148.422 57.4219 145.661 57.4219Z" fill="url(#paint9_linear)"/>
<path d="M118.943 20.5078H145.661C148.422 20.5078 150.661 22.7464 150.661 25.5078V40.1172C150.661 42.8786 148.422 45.1172 145.661 45.1172H143.552C129.961 45.1172 118.943 34.0992 118.943 20.5078V20.5078Z" fill="#F2275D"/>
<path d="M253.496 43.75H292.29C293.947 43.75 295.29 45.0932 295.29 46.75V60.8191C295.29 62.476 293.947 63.8191 292.29 63.8191H258.562C252.941 63.8191 253.496 75.7021 258.562 75.7021H285.743C305.855 75.7021 303.616 128.516 285.743 128.516H239.86C238.203 128.516 236.86 127.172 236.86 125.516V110.918C236.86 109.262 238.197 107.918 239.854 107.918H273.981C279.602 107.918 279.398 94.2972 273.981 94.2972H253.496C226.688 94.2972 228.113 43.75 253.496 43.75Z" fill="url(#paint10_linear)"/>
<defs>
<linearGradient id="paint0_linear" x1="23.7885" y1="0" x2="23.7885" y2="129.883" gradientUnits="userSpaceOnUse">
<stop stop-color="#023E73"/>
<stop offset="1" stop-color="#012840"/>
</linearGradient>
<linearGradient id="paint1_linear" x1="202.203" y1="45.8767" x2="202.203" y2="175" gradientUnits="userSpaceOnUse">
<stop stop-color="#023E73"/>
<stop offset="1" stop-color="#012840"/>
</linearGradient>
<linearGradient id="paint2_linear" x1="81.9384" y1="0" x2="81.9384" y2="129.883" gradientUnits="userSpaceOnUse">
<stop stop-color="#023E73"/>
<stop offset="1" stop-color="#012840"/>
</linearGradient>
<linearGradient id="paint3_linear" x1="95.1541" y1="20.5078" x2="95.1541" y2="45.1172" gradientUnits="userSpaceOnUse">
<stop stop-color="#023A6B"/>
<stop offset="1" stop-color="#013661"/>
</linearGradient>
<linearGradient id="paint4_linear" x1="128.855" y1="57.4219" x2="128.855" y2="129.883" gradientUnits="userSpaceOnUse">
<stop stop-color="#F2275D"/>
<stop offset="1" stop-color="#BF0436"/>
</linearGradient>
<linearGradient id="paint5_linear" x1="209.471" y1="20.5078" x2="209.471" y2="45.1172" gradientUnits="userSpaceOnUse">
<stop stop-color="#023B6D"/>
<stop offset="1" stop-color="#013661"/>
</linearGradient>
<linearGradient id="paint6_linear" x1="23.7885" y1="0" x2="23.7885" y2="129.883" gradientUnits="userSpaceOnUse">
<stop stop-color="#023E73"/>
<stop offset="1" stop-color="#012840"/>
</linearGradient>
<linearGradient id="paint7_linear" x1="81.9384" y1="0" x2="81.9384" y2="129.883" gradientUnits="userSpaceOnUse">
<stop stop-color="#023E73"/>
<stop offset="1" stop-color="#012840"/>
</linearGradient>
<linearGradient id="paint8_linear" x1="95.1541" y1="20.5078" x2="95.1541" y2="45.1172" gradientUnits="userSpaceOnUse">
<stop stop-color="#023A6B"/>
<stop offset="1" stop-color="#013661"/>
</linearGradient>
<linearGradient id="paint9_linear" x1="128.855" y1="57.4219" x2="128.855" y2="129.883" gradientUnits="userSpaceOnUse">
<stop stop-color="#F2275D"/>
<stop offset="1" stop-color="#BF0436"/>
</linearGradient>
<linearGradient id="paint10_linear" x1="266.96" y1="43.75" x2="266.96" y2="128.516" gradientUnits="userSpaceOnUse">
<stop stop-color="#023B6C"/>
<stop offset="1" stop-color="#012840"/>
</linearGradient>
</defs>
</svg>
